X: 269
T:Rondeau
M:3/4
L:1/8
Q:120
C:Adam de la Halle
O:France
H:XIV eme siecle
Z:S. Piron
K:C
c2 (c/2B/2A/2|(GF/2 E F|GA (Bc/2|dd(cd/2|e2 (d/2c/2B/2|(AG/2 AB|
|c2 (c/2B/2A/2|(GF/2 E F|GA (Bc/2|(dc/2 BA|c2 z||
|:c2 (c/2B/2A/2|(GF/2 E F|GA (Bc/2|dd(cd/2|e2 (d/2c/2B/2|1(AG/2 AB:|2A2
z||
W:
W:A Dieu comant amouretes
W:Car je m'en vois
W:Soupirant en terre estrange.
W:
W:Dolans lairai les douchetes
W:Et mout destrois.
W:
W:J'en feroie ronetes
W:S'estoie roys,
W:Coment que la chose empraigne.
W:
W:A Dieu comant amouretes
W:Car je m'en vois.
W:
W: From "Falaleiro" http://home.t-online.de/home/pheld/homepage.htm
